app/images/dest/ triangles.svg

<svg width="107" height="87" viewBox="0 0 107 87" fill="none" xmlns="http://www.w3.org/2000/svg">
<path d="M0 42.7779L37.2681 21.8704L0.54907 0L0 42.7779ZM6.86338 11.2791L24.2964 21.664L6.58884 31.6364L6.86338 11.2791Z" fill="#6DED02"/>
<path d="M17.5695 77.0278L37.1987 87.0001L35.9633 64.9922L17.5695 77.0278ZM19.148 76.959L35.2083 66.4365L36.3065 85.6934L19.148 76.959Z" fill="#6DED02"/>
<path d="M97.6662 43.8096L107 32.4617L92.5187 29.9858L97.6662 43.8096ZM97.8035 42.7779L93.3423 30.6736L105.971 32.8056L97.8035 42.7779Z" fill="#6DED02"/>
<path d="M55.8677 40.3706L55.1814 49.724L54.4264 59.0086L62.8683 54.9508L71.2416 50.9619L63.5547 45.6663L55.8677 40.3706Z" fill="#6DED02"/>
<path d="M92.4489 78.8843L95.5374 82.323L98.6259 85.7617L100.067 81.4289L101.509 77.0273L96.9787 77.9214L92.4489 78.8843Z" fill="#6DED02"/>
</svg>

<svg width="107" height="87" fill="none" xmlns="http://www.w3.org/2000/svg"><path d="M0 42.778L37.268 21.87.55 0 0 42.778zm6.863-31.499l17.433 10.385L6.59 31.636l.274-20.357zM17.57 77.028L37.199 87l-1.236-22.008L17.57 77.028zm1.578-.069l16.06-10.523 1.099 19.257-17.159-8.734zM97.666 43.81L107 32.462l-14.481-2.476 5.147 13.824zm.138-1.032l-4.462-12.104 12.629 2.132-8.168 9.972zM55.868 40.37l-.687 9.354-.755 9.285 8.442-4.058 8.374-3.99-7.687-5.295-7.687-5.295zm36.581 38.514l3.088 3.439 3.089 3.439 1.441-4.333 1.442-4.402-4.53.894-4.53.963z" fill="#6DED02"/></svg>
